public/assets/images/icons/blue/edit/own-license.svg

<svg width="16" height="16" xmlns="http://www.w3.org/2000/svg" viewBox="0 0 16 16" shape-rendering="geometricPrecision" fill="#24437c"><defs><mask id="a"><rect fill="#fff" width="100%" height="100%"/><path d="M15.568.488c.365-.9-.337-1.487-.851-1.704-.593-.25-1.396-.157-1.78.752l-.142.357-2.14 5.317.603 2.278 1.98-1.23L15.44.788l.128-.3z" fill="#000"/></mask></defs><g fill="#cb1800"><path d="M11.686 6.423l.6-.513-.675-.269zM14.245.038a.714.714 0 0 0-.927.393l-.213.531 1.326.532.214-.532h-.001a.714.714 0 0 0-.399-.924zM11.527 4.9l1.433-3.573 1.325.532-1.433 3.572z"/></g><g mask="url(#a)"><path d="M8 7.933c1.19 0 2.149-.96 2.149-2.148a2.149 2.149 0 0 0-4.298 0c0 1.188.963 2.148 2.149 2.148zm1.996 1.02h-4a2.071 2.071 0 0 0-2.064 2.07v2.692h8.136v-2.692c0-1.138-.933-2.07-2.072-2.07z"/><path d="M7.999.97a7.03 7.03 0 0 0 0 14.06 7.03 7.03 0 1 0 0-14.06zm0 12.638a5.616 5.616 0 0 1-5.607-5.605 5.616 5.616 0 0 1 5.607-5.611 5.617 5.617 0 0 1 5.609 5.611 5.615 5.615 0 0 1-5.609 5.605z"/></g></svg>

<?xml version="1.0"?><!DOCTYPE svg PUBLIC "-//W3C//DTD SVG 1.1//EN" "http://www.w3.org/Graphics/SVG/1.1/DTD/svg11.dtd"><svg width="16px" height="16px" xmlns="http://www.w3.org/2000/svg" viewBox="0 0 16 16" shape-rendering="geometricPrecision" fill="#24437c"><defs><mask id="edit-path"><rect fill="#fff" width="100%" height="100%"/><path d="M15.568,0.488c0.365-0.9-0.337-1.487-0.851-1.704c-0.593-0.25-1.396-0.157-1.78,0.752l-0.142,0.357 l-2.14,5.317l0.603,2.278l1.98-1.23l2.202-5.47L15.568,0.488z" fill="#000"/></mask></defs><g id="edit_3_" display="inline" fill="#cb1800"><polygon points="11.686,6.423 12.286,5.91 11.611,5.641 "/><path d="M14.245,0.038c-0.365-0.147-0.778,0.03-0.927,0.393l-0.213,0.531l1.326,0.532l0.214-0.532h-0.001 C14.787,0.597,14.61,0.183,14.245,0.038z"/><rect x="10.982" y="2.666" transform="matrix(0.3723 -0.9281 0.9281 0.3723 4.9642 14.0992)" width="3.849" height="1.428"/></g><g mask="url(#edit-path)"><g><path d="M8,7.933c1.19,0,2.149-0.96,2.149-2.148c0-1.186-0.959-2.147-2.149-2.147 c-1.185,0-2.149,0.961-2.149,2.147C5.851,6.973,6.814,7.933,8,7.933z M9.996,8.953H5.996c-1.139,0-2.064,0.932-2.064,2.07v2.692 h8.136v-2.692C12.068,9.885,11.135,8.953,9.996,8.953z"/></g><path d="M7.999,0.97c-3.882,0-7.029,3.147-7.029,7.033c0.001,3.881,3.147,7.025,7.029,7.027c3.883-0.002,7.031-3.146,7.031-7.027 C15.03,4.116,11.882,0.97,7.999,0.97z M7.999,13.608c-3.096-0.006-5.601-2.512-5.607-5.605c0.006-3.1,2.511-5.606,5.607-5.611 c3.098,0.006,5.603,2.512,5.609,5.611C13.602,11.097,11.097,13.603,7.999,13.608z"/></g></svg>
